X: 34671
T: Road To Cork, The
R: jig
M: 6/8
K: Dmajor
|:dAF DFA|BAF AB/c/d|~f3 afd|efe edc|
dAF DFA|BAF AB/c/d|~f3 afd|1 efe edc:|2 efe e3||
|:efe efg|fef def|~g3 gab|a2b afd|
efe efg|fef def|gfe dcB|1 ABG AB/c/d:|2 ABG ABc||

